X: 25099
T: Maienkranz
R: polka
M: 2/4
K: Cmajor
c/d/|"C"ee"G7"d/c/d/f/|"C"eec>c|"G7"B/c/d/e/ fd/B/|"C"c/d/e/f/ g c/d/|
"C"ee"G7"d/c/d/f/|"C"eec>c|"G7"B/c/d/e/ fd/B/|"C"cec:|
K:G
G/A/|"G"BBBB|B/c/d2 B|"D7"A/B/c2A|"G"G/A/ B/c/ d/c/ B/A/|
BBBB|B/c/d2B|"D7"A/B/ c/d/ c/B/ A/F/|"G"GBG:|

